src/catppuccin-latte-dark-cursors/size_ver.svg

<?xml version="1.0" encoding="UTF-8" standalone="no"?>
<svg
   id="svg5327"
   width="32"
   height="32"
   version="1.1"
   sodipodi:docname="size_ver.svg"
   inkscape:version="1.1.2 (0a00cf5339, 2022-02-04)"
   xmlns:inkscape="http://www.inkscape.org/namespaces/inkscape"
   xmlns:sodipodi="http://sodipodi.sourceforge.net/DTD/sodipodi-0.dtd"
   xmlns="http://www.w3.org/2000/svg"
   xmlns:svg="http://www.w3.org/2000/svg">
  <sodipodi:namedview
     id="namedview9452"
     pagecolor="#ffffff"
     bordercolor="#666666"
     borderopacity="1.0"
     inkscape:pageshadow="2"
     inkscape:pageopacity="0.0"
     inkscape:pagecheckerboard="0"
     showgrid="false"
     inkscape:zoom="25.96875"
     inkscape:cx="16"
     inkscape:cy="16.019254"
     inkscape:window-width="1896"
     inkscape:window-height="1020"
     inkscape:window-x="9"
     inkscape:window-y="45"
     inkscape:window-maximized="1"
     inkscape:current-layer="svg5327" />
  <defs
     id="defs5329">
    <filter
       id="filter937"
       style="color-interpolation-filters:sRGB"
       width="1.152"
       height="1.099"
       x="-.08"
       y="-.05">
      <feGaussianBlur
         id="feGaussianBlur939"
         stdDeviation=".413" />
    </filter>
    <filter
       id="filter1013"
       style="color-interpolation-filters:sRGB"
       width="1.207"
       height="1.084"
       x="-.1"
       y="-.04">
      <feGaussianBlur
         id="feGaussianBlur1015"
         stdDeviation=".475" />
    </filter>
    <filter
       id="filter820"
       style="color-interpolation-filters:sRGB"
       width="1.2487273"
       height="1.1013333"
       x="-0.12436363"
       y="-0.050666665">
      <feGaussianBlur
         id="feGaussianBlur822"
         stdDeviation=".57" />
    </filter>
  </defs>
  <path
     id="path987"
     style="color:#000000;font-style:normal;font-variant:normal;font-weight:normal;font-stretch:normal;font-size:medium;line-height:normal;font-family:sans-serif;font-variant-ligatures:normal;font-variant-position:normal;font-variant-caps:normal;font-variant-numeric:normal;font-variant-alternates:normal;font-feature-settings:normal;text-indent:0;text-align:start;text-decoration:none;text-decoration-line:none;text-decoration-style:solid;text-decoration-color:#000000;letter-spacing:normal;word-spacing:normal;text-transform:none;writing-mode:lr-tb;direction:ltr;text-orientation:mixed;dominant-baseline:auto;baseline-shift:baseline;text-anchor:start;white-space:normal;shape-padding:0;clip-rule:nonzero;display:inline;overflow:visible;visibility:visible;opacity:0.2;isolation:auto;mix-blend-mode:normal;color-interpolation:sRGB;color-interpolation-filters:linearRGB;solid-color:#000000;solid-opacity:1;vector-effect:none;fill:#000000;fill-opacity:1;fill-rule:nonzero;stroke:none;stroke-width:1.9998852;stroke-linecap:round;stroke-linejoin:round;stroke-miterlimit:4;stroke-dasharray:none;stroke-dashoffset:0;stroke-opacity:1;paint-order:normal;color-rendering:auto;image-rendering:auto;shape-rendering:auto;text-rendering:auto;enable-background:accumulate;filter:url(#filter820)"
     d="m 15.992833,2.5000031 a 1.0000274,1.0000578 0 0 0 -0.839783,0.458965 l -4.495767,6.9997044 a 1.0000274,1.0000578 0 0 0 1.505749,1.2870565 c 0.571682,-0.509006 1.432405,-0.988872 2.335769,-1.3358826 V 22.089021 c -0.903364,-0.34701 -1.764087,-0.826876 -2.335769,-1.335882 a 1.0000274,1.0000578 0 0 0 -1.505749,1.287056 l 4.495767,6.999704 a 1.0000274,1.0000578 0 0 0 1.683472,0 l 4.503579,-6.999704 a 1.0000274,1.0000578 0 0 0 -1.507703,-1.287056 c -0.568041,0.5083 -1.428717,0.989241 -2.333815,1.335882 V 9.9098464 c 0.905098,0.3466416 1.765774,0.8275826 2.333815,1.3358826 A 1.0000274,1.0000578 0 0 0 21.340101,9.9586725 L 16.836522,2.9589681 a 1.0000274,1.0000578 0 0 0 -0.843689,-0.458965 z" />
  <path
     id="path984"
     style="color:#000000;font-style:normal;font-variant:normal;font-weight:normal;font-stretch:normal;font-size:medium;line-height:normal;font-family:sans-serif;font-variant-ligatures:normal;font-variant-position:normal;font-variant-caps:normal;font-variant-numeric:normal;font-variant-alternates:normal;font-feature-settings:normal;text-indent:0;text-align:start;text-decoration:none;text-decoration-line:none;text-decoration-style:solid;text-decoration-color:#000000;letter-spacing:normal;word-spacing:normal;text-transform:none;writing-mode:lr-tb;direction:ltr;text-orientation:mixed;dominant-baseline:auto;baseline-shift:baseline;text-anchor:start;white-space:normal;shape-padding:0;clip-rule:nonzero;display:inline;overflow:visible;visibility:visible;opacity:1;isolation:auto;mix-blend-mode:normal;color-interpolation:sRGB;color-interpolation-filters:linearRGB;solid-color:#000000;solid-opacity:1;vector-effect:none;fill:#EFF1F5;fill-opacity:1;fill-rule:nonzero;stroke:none;stroke-width:1.9998852;stroke-linecap:round;stroke-linejoin:round;stroke-miterlimit:4;stroke-dasharray:none;stroke-dashoffset:0;stroke-opacity:1;paint-order:normal;color-rendering:auto;image-rendering:auto;shape-rendering:auto;text-rendering:auto;enable-background:accumulate"
     d="M 15.492833,2.000004 A 1.0000274,1.0000578 0 0 0 14.65305,2.458969 l -4.495767,6.9997044 a 1.0000274,1.0000578 0 0 0 1.505749,1.2870556 c 0.571682,-0.509006 1.432405,-0.9888717 2.335769,-1.3358817 V 21.589021 c -0.903364,-0.34701 -1.764087,-0.826876 -2.335769,-1.335882 a 1.0000274,1.0000578 0 0 0 -1.505749,1.287056 l 4.495767,6.999704 a 1.0000274,1.0000578 0 0 0 1.683472,0 l 4.503579,-6.999704 a 1.0000274,1.0000578 0 0 0 -1.507703,-1.287056 c -0.568041,0.5083 -1.428717,0.989241 -2.333815,1.335882 V 9.4098473 c 0.905098,0.346641 1.765774,0.8275817 2.333815,1.3358817 A 1.0000274,1.0000578 0 0 0 20.840101,9.4586734 L 16.336522,2.458969 A 1.0000274,1.0000578 0 0 0 15.492833,2.000004 Z" />
  <path
     id="path970"
     style="opacity:1;fill:#4C4F69;fill-opacity:1;stroke:none;stroke-width:0;stroke-linecap:round;stroke-linejoin:round;stroke-miterlimit:4;stroke-dasharray:none;stroke-dashoffset:0;stroke-opacity:1;paint-order:normal"
     d="M 15.496094 3 L 11 10 C 11.997205 9.11215 13.69258 7.9989115 15.496094 8 C 17.29961 8.001148 19.002258 9.10722 20 10 L 15.496094 3 z M 15 9 L 15 22 L 16 22 L 16 9 L 15 9 z M 11 21 L 15.496094 28 L 20 21 C 19.002258 21.89278 17.29961 22.998852 15.496094 23 C 13.69258 23.001089 11.997205 21.88785 11 21 z" />
</svg>

<svg xmlns="http://www.w3.org/2000/svg" width="32" height="32">
    <defs>
        <filter id="a" width="1.249" height="1.101" x="-.124" y="-.051" style="color-interpolation-filters:sRGB">
            <feGaussianBlur stdDeviation=".57"/>
        </filter>
    </defs>
    <path d="M15.993 2.5a1 1 0 0 0-.84.459l-4.496 7a1 1 0 0 0 1.506 1.287c.572-.51 1.432-.99 2.336-1.336v12.179c-.904-.347-1.764-.827-2.336-1.336a1 1 0 0 0-1.506 1.287l4.496 7a1 1 0 0 0 1.684 0l4.503-7a1 1 0 0 0-1.508-1.287c-.568.508-1.428.99-2.333 1.336V9.909c.905.347 1.765.828 2.333 1.337a1 1 0 0 0 1.508-1.287l-4.503-7a1 1 0 0 0-.844-.459" style="color:#000;font-style:normal;font-variant:normal;font-weight:400;font-stretch:normal;font-size:medium;line-height:normal;font-family:sans-serif;font-variant-ligatures:normal;font-variant-position:normal;font-variant-caps:normal;font-variant-numeric:normal;font-variant-alternates:normal;font-feature-settings:normal;text-indent:0;text-align:start;text-decoration:none;text-decoration-line:none;text-decoration-style:solid;text-decoration-color:#000;letter-spacing:normal;word-spacing:normal;text-transform:none;writing-mode:lr-tb;direction:ltr;text-orientation:mixed;dominant-baseline:auto;baseline-shift:baseline;text-anchor:start;white-space:normal;shape-padding:0;clip-rule:nonzero;display:inline;overflow:visible;visibility:visible;opacity:.2;isolation:auto;mix-blend-mode:normal;color-interpolation:sRGB;color-interpolation-filters:linearRGB;solid-color:#000;solid-opacity:1;vector-effect:none;fill:#000;fill-opacity:1;fill-rule:nonzero;stroke:none;stroke-width:1.9998852;stroke-linecap:round;stroke-linejoin:round;stroke-miterlimit:4;stroke-dasharray:none;stroke-dashoffset:0;stroke-opacity:1;paint-order:normal;color-rendering:auto;image-rendering:auto;shape-rendering:auto;text-rendering:auto;enable-background:accumulate;filter:url(#a)"/>
    <path d="M15.493 2a1 1 0 0 0-.84.459l-4.496 7a1 1 0 0 0 1.506 1.287c.572-.51 1.432-.99 2.336-1.336v12.179c-.904-.347-1.764-.827-2.336-1.336a1 1 0 0 0-1.506 1.287l4.496 7a1 1 0 0 0 1.684 0l4.503-7a1 1 0 0 0-1.508-1.287c-.568.508-1.428.99-2.333 1.336V9.409c.905.347 1.765.828 2.333 1.337a1 1 0 0 0 1.508-1.287l-4.503-7A1 1 0 0 0 15.493 2" style="color:#000;font-style:normal;font-variant:normal;font-weight:400;font-stretch:normal;font-size:medium;line-height:normal;font-family:sans-serif;font-variant-ligatures:normal;font-variant-position:normal;font-variant-caps:normal;font-variant-numeric:normal;font-variant-alternates:normal;font-feature-settings:normal;text-indent:0;text-align:start;text-decoration:none;text-decoration-line:none;text-decoration-style:solid;text-decoration-color:#000;letter-spacing:normal;word-spacing:normal;text-transform:none;writing-mode:lr-tb;direction:ltr;text-orientation:mixed;dominant-baseline:auto;baseline-shift:baseline;text-anchor:start;white-space:normal;shape-padding:0;clip-rule:nonzero;display:inline;overflow:visible;visibility:visible;opacity:1;isolation:auto;mix-blend-mode:normal;color-interpolation:sRGB;color-interpolation-filters:linearRGB;solid-color:#000;solid-opacity:1;vector-effect:none;fill:#eff1f5;fill-opacity:1;fill-rule:nonzero;stroke:none;stroke-width:1.9998852;stroke-linecap:round;stroke-linejoin:round;stroke-miterlimit:4;stroke-dasharray:none;stroke-dashoffset:0;stroke-opacity:1;paint-order:normal;color-rendering:auto;image-rendering:auto;shape-rendering:auto;text-rendering:auto;enable-background:accumulate"/>
    <path d="M15.496 3 11 10c.997-.888 2.693-2.001 4.496-2S19.002 9.107 20 10zM15 9v13h1V9zm-4 12 4.496 7L20 21c-.998.893-2.7 1.999-4.504 2S11.997 21.888 11 21" style="opacity:1;fill:#4c4f69;fill-opacity:1;stroke:none;stroke-width:0;stroke-linecap:round;stroke-linejoin:round;stroke-miterlimit:4;stroke-dasharray:none;stroke-dashoffset:0;stroke-opacity:1;paint-order:normal"/>
</svg>
